Origami/22x22/apps/chrome-store.svg

<svg width="22" height="22" version="1" xmlns="http://www.w3.org/2000/svg">
 <path d="m8 1-1 1v2h-6v15c0 0.554 0.446 1 1 1h18c0.554 0 1-0.446 1-1v-15h-6v-2l-1-1zm0 1h6v2h-6z" style="fill:#cccccc"/>
 <path d="m8 1-1 1v0.5l1-1h6l1 1v-0.5l-1-1h-6zm-7 3v0.5h6v-0.5h-6zm7 0v0.5h6v-0.5h-6zm7 0v0.5h6v-0.5h-6z" style="fill:#ffffff;opacity:.1"/>
 <path d="m8 2v0.5h6v-0.5h-6zm-7 17v0.5c0 0.554 0.446 1 1 1h18c0.554 0 1-0.446 1-1v-0.5c0 0.554-0.446 1-1 1h-18c-0.554 0-1-0.446-1-1z" style="opacity:.2"/>
 <path d="m10.984375 10c-3.5031004 0-6.5663562 1.796472-8.3476562 4.513672-0.0407746 2.639196 1.0360219 4.159927 2.3066406 5.486328h1.546875c-2.6e-6 -2e-3 0-0.0039 0-0.0059 0-2.4917 2.0204402-3.221047 4.4941406-3.498047l8.923828-0.998047c-1.638-3.267959-5.008828-5.498006-8.923828-5.498006z" style="fill:#dd4d3e"/>
 <path d="M 2.640625,14.537109 C 1.7123385,15.949 1.1798239,17.572992 1.0488281,19.244141 1.1594632,19.676139 1.5325625,20 2,20 L 5.7929688,20 2.640625,14.537109 Z" style="fill:#109f5b"/>
 <path d="m19.927734 15.501953-8.792968 0.0039c0.72399 0.01959 1.4513 0.206394 2.125 0.595703 1.152 0.665801 1.044028 1.981194 1.298828 3.183594 0.05197 0.24522 0.132736 0.481894 0.214844 0.714844l5.226562 6e-6c0.477825 0 0.856757-0.338459 0.957031-0.785156-0.103424-1.291337-0.446501-2.55457-1.029297-3.712891z" style="fill:#ffce41"/>
 <path d="m11 15c-2.77 0-5 2.23-5 5h10c0-2.77-2.23-5-5-5z" style="fill:#ffffff"/>
 <path d="m11 16c-2.216 0-4 1.784-4 4h8c0-2.216-1.784-4-4-4z" style="fill:#4587f3"/>
</svg>

<svg xmlns="http://www.w3.org/2000/svg" width="22" height="22" version="1">
 <path style="fill:#cccccc" d="M 8,1 7,2 7,4 1,4 1,19 c 0,0.554 0.446,1 1,1 l 18,0 c 0.554,0 1,-0.446 1,-1 L 21,4 15,4 15,2 14,1 Z m 0,1 6,0 0,2 -6,0 z"/>
 <path style="opacity:0.1;fill:#ffffff" d="m 8,1 -1,1 0,0.5 1,-1 6,0 1,1 L 15,2 14,1 8,1 Z M 1,4 1,4.5 7,4.5 7,4 1,4 Z m 7,0 0,0.5 6,0 L 14,4 8,4 Z m 7,0 0,0.5 6,0 0,-0.5 -6,0 z"/>
 <path style="opacity:0.2" d="m 8,2 0,0.5 6,0 L 14,2 8,2 Z m -7,17 0,0.5 c 0,0.554 0.446,1 1,1 l 18,0 c 0.554,0 1,-0.446 1,-1 L 21,19 c 0,0.554 -0.446,1 -1,1 L 2,20 C 1.446,20 1,19.554 1,19 Z"/>
 <path style="fill:#dd4d3e" d="M 10.984375,10 C 7.4812746,10 4.4180188,11.796472 2.6367188,14.513672 2.5959442,17.152868 3.6727407,18.673599 4.9433594,20 l 1.546875,0 c -2.6e-6,-0.002 0,-0.0039 0,-0.0059 0,-2.4917 2.0204402,-3.221047 4.4941406,-3.498047 l 8.923828,-0.998047 C 18.270203,12.230047 14.899375,10 10.984375,10 Z"/>
 <path style="fill:#109f5b" d="M 2.640625,14.537109 C 1.7123385,15.949 1.1798239,17.572992 1.0488281,19.244141 1.1594632,19.676139 1.5325625,20 2,20 L 5.7929688,20 2.640625,14.537109 Z"/>
 <path style="fill:#ffce41" d="m 19.927734,15.501953 -8.792968,0.0039 c 0.72399,0.01959 1.4513,0.206394 2.125,0.595703 1.152,0.665801 1.044028,1.981194 1.298828,3.183594 0.05197,0.24522 0.132736,0.481894 0.214844,0.714844 L 20,20 c 0.477825,0 0.856757,-0.338459 0.957031,-0.785156 -0.103424,-1.291337 -0.446501,-2.55457 -1.029297,-3.712891 z"/>
 <path style="fill:#ffffff" d="m 11,15 c -2.77,0 -5,2.23 -5,5 l 10,0 c 0,-2.77 -2.23,-5 -5,-5 z"/>
 <path style="fill:#4587f3" d="m 11,16 c -2.216,0 -4,1.784 -4,4 l 8,0 c 0,-2.216 -1.784,-4 -4,-4 z"/>
</svg>
